X: 35904
T: Sandy MacLeod Of Garafad
R: reel
M: 4/4
K: Dmajor
|:eAea f2 ef|g2 dc GABG|eAea f2 ef|1 gBdc AA A2:|2 gBdc AAAB||
|:GAAB g2 Ag|fefd edBd|GAAB gAAg|1 faec d4:|faec ddde|
|:fefa d2 ef|g2 dB GABG|fefa d2 ef|1 gBdc AA A2:|2 gBdc AA A2||

